2 Export/Icons/Rounded/Chat, Question Answer 1.svg

<svg xmlns="http://www.w3.org/2000/svg" xmlns:xlink="http://www.w3.org/1999/xlink" width="24" height="24" viewBox="0 0 24 24">
  <defs>
    <path id="chat,-question-answer-1-a" d="M20 6h-1v8c0 .55-.45 1-1 1H6v1c0 1.1.9 2 2 2h10l4 4V8c0-1.1-.9-2-2-2zm-3 5V4c0-1.1-.9-2-2-2H4c-1.1 0-2 .9-2 2v13l4-4h9c1.1 0 2-.9 2-2z"/>
  </defs>
  <g fill="none" fill-rule="evenodd">
    <polygon points="0 0 24 0 24 24 0 24"/>
    <mask id="chat,-question-answer-1-b" fill="#fff">
      <use xlink:href="#chat,-question-answer-1-a"/>
    </mask>
    <use fill="#000" xlink:href="#chat,-question-answer-1-a"/>
    <g fill="#000" mask="url(#chat,-question-answer-1-b)">
      <rect width="24" height="24"/>
    </g>
  </g>
</svg>

<svg xmlns="http://www.w3.org/2000/svg" xmlns:xlink="http://www.w3.org/1999/xlink" width="24" height="24" viewBox="0 0 24 24">
  <defs>
    <path id="chat,-question-answer-1-a" d="M20,6 L19,6 L19,14 C19,14.55 18.55,15 18,15 L6,15 L6,16 C6,17.1 6.9,18 8,18 L18,18 L22,22 L22,8 C22,6.9 21.1,6 20,6 Z M17,11 L17,4 C17,2.9 16.1,2 15,2 L4,2 C2.9,2 2,2.9 2,4 L2,17 L6,13 L15,13 C16.1,13 17,12.1 17,11 Z"/>
  </defs>
  <g fill="none" fill-rule="evenodd">
    <polygon points="0 0 24 0 24 24 0 24"/>
    <mask id="chat,-question-answer-1-b" fill="#fff">
      <use xlink:href="#chat,-question-answer-1-a"/>
    </mask>
    <use fill="#000" xlink:href="#chat,-question-answer-1-a"/>
    <g fill="#000" mask="url(#chat,-question-answer-1-b)">
      <rect width="24" height="24"/>
    </g>
  </g>
</svg>
